X:3883
T:Mad Robin
O:england
M:2/2
L:1/4
B:The Round Band Book of Playford
K:Bb
d | "Bb"f d2 g | "Bb"f B2 c | "Gm"de/2d/2 "Cm"cB | "F"c/2B/2A/2G/2 F2 |
\
"Bb"f "Eb"d2 g | "Bb"f "Gm"B2 c | "F"d e/2d/2 "F7"c>B | "Bb"B3 :: \
f | "Gm"b>a "F"gf | "Gm"g d2 =e | "Dm"dg "D7"g>^f | "Gm"g3 f | \
"F"f e2 d | "Bb"f d2 "Gm"c/2B/2 | "Cm"AG "F7"c>B | "Bb"B3 :|


